icons/folder-open-16-f.svg

<?xml version="1.0" encoding="UTF-8"?><svg id="icons" xmlns="http://www.w3.org/2000/svg" viewBox="0 0 16 16"><defs><style>.cls-1{fill:none;}.cls-1,.cls-2{stroke-width:0px;}</style></defs><rect class="cls-1" width="16" height="16"/><path class="cls-2" d="M14,6v-3l-5.7002.00201-1.31842-1.00201h-2.98138l-1.2998,1h-1.7002v11h13l2-8h-2ZM2,3.991h1.04102l1.29877-.991h2.30475l1.31836.99301,5.03711-.00201v2.009h-4l-1.2998,1H3.7002l-1.7002,4.40759V3.991Z"/></svg>

<svg xmlns="http://www.w3.org/2000/svg" viewBox="0 0 16 16"><path stroke-width="0" fill="none" d="M0 0h16v16H0z"/><path d="M14 6V3l-5.7.002L6.98 2H4L2.7 3H1v11h13l2-8h-2zM2 3.991h1.041L4.34 3h2.305l1.318.993L13 3.991V6H9L7.7 7h-4L2 11.408V3.99z" stroke-width="0"/></svg>
